!! 00000] TT[WS
!!!OTL: Da xinchui
!!!ARE: Asia, China, Shanxi Shoyang
!! Ethnic Group: Han
!! WII, 61 (2)
!!!SCT: J0489
!!!YEM: Copyright 1995, estate of Helmut Schaffrath.
**kern
*ICvox
*Ivox
*M2/4
*k[f#]
*G:
{8b
4dd
8ee
=1
4dd
4a
=2
8b
4dd
8a
=3
8g
8e
8g
8a}
=4
{8b
4dd
8b
=5
4a
8dd
8dd
=6
8ee
16dd
16ee
8cc
16b
16a
=7
8g
4a
8e
=8
2d}
==
!!!AGN: Xiaodiao. Qingge, Sichun
!!!ONB: ESAC (Essen Associative Code) Database: CHINA
!!!AMT: simple duple
!!!AIN: vox
!!!EED: Helmut Schaffrath
!!!EEV: 1.0
*-
